!!!OTL: Prozessionslied (2-8) S. 33
!!!id: P0881
**kern
*clefG2
*k[b-]
*F:
{4c
=1
4f
8f
8g
4a
8a
8b-
=2
8.cc
16dd
8cc
8b-
8a
8g
4f}
=3
{4.b-
8cc
8a
8f
4f
=4
4e
4f
4g}
=5
{4c
=6
4f
8f
8g
4a
8a
8b-
=7
8.cc
16dd
8cc
8b-
8a
8g
4f}
=8
{4.b-
8cc
8a
8g
8f
8f
=9
4e
8f
8a
4g}
=10
{4f
=11
4a
8g
8g
4f
8c
8a
=12
8.cc
16dd
8cc
8b-
8a
8g}
=13
{4f
=14
8.a
16g
8a
8b-
8cc
8dd
8cc
8b-
=15
4a
8g
8g
4f}
==
*-
!!!minrhy: 16
!!!meters: 4/4 ]  ZZ[6
!!!cut: Prozessionslied (2-8) S. 33
!!!reg: Lothringen
!!!trd: PINCK, Louis: Verklingende Weisen, Bd 2, Metz 1928
!!!rhy1: X__  X__X_X_X__X_X_  X_.XX_X_X_X_X__
!!!rhy2: X__.X_X_X_X__  X__X__X__
!!!key: P0881  16  F 4/4 ]  ZZ[6
!!!mod: HEPTATONIK IONISCH]  AMBITUS[9
!!!kad: 121221
!!!akz: 1353_43-72_1353_43-72_3153_3531_
!!!fot: 'a__b__a__bv_c__d__
!!!for: 'a__b__a__c__aw_d__
!!!fok: '^a_Vd_^a_Vd_Ma_^__
!! PHRAS[VORWIEGEND AUFTAKTIG]
!!!fkt: geistliche, religiöse Lieder
!! LOTH VKL
!! PR[35] 2K[3] 2G[6] 3K[3] 3G[3] 4A[3] 4Ü[0] 5A[6] 6K[0] 6G[0]
!! 7K[0] 7G[0] 8A[0] MEHR[0] SI[24] ABS[34] SR[9] SP[15]
!! ST[13] 2k[9] 2g[21] 3k[3] 3g[0] 4d[6] 4ü[3] 5d[0] 6k[0] 6g[0]
!! 7k[0] 7g[0] 8d[0] mehr[0] si[41] dm[-17] sr[29] sp[12]
!! 1F[39] 2F[39] 3F[16] 4F[0] LF[0] 2P[3] 3P[3] 4P[0] TRI[0] DF[5] AB[38]
!! TF[0] U3K[0] U3[0] U4[0] U4Ü[0] U5[0] U6K[0] U6[0] U7K[0] U7[0]
!! N1[3] N2K[3] N2[3] N3K[6] N3[0] N4[29] N4Ü[0] N5[31] N6K[6] N6[0]
!!!n7k: 6] N7[0] O1[14] O2K[0] O2[0] O3K[0] O3[0] HÖ[0
